Obsidian-SemiLight/actions/22s/depth8to16.svg

<svg xmlns="http://www.w3.org/2000/svg" xmlns:inkscape="http://www.inkscape.org/namespaces/inkscape" viewBox="0 0 22 22">
  <defs id="defs3051">
    <style type="text/css" id="current-color-scheme">
      .ColorScheme-Text {
        color:#4d4d4d;
      }
      </style>
  </defs>
 <path 
	style="fill:currentColor;fill-opacity:1;stroke:none" 
    d="M 11 3 L 11 4 A 7 7 0 0 1 17.308594 8 L 13.699219 8 L 13.699219 9 L 17.699219 9 L 18.699219 9 L 18.699219 8.8867188 L 18.699219 8 L 18.699219 4 L 17.699219 4 L 17.699219 6.65625 A 7.999998 8 0 0 0 11 3 z M 3.3007812 13 L 3.3007812 13.113281 L 3.3007812 14 L 3.3007812 18 L 4.3007812 18 L 4.3007812 15.34375 A 7.999998 8 0 0 0 11 19 L 11 18 A 7 7 0 0 1 4.6914062 14 L 8.3007812 14 L 8.3007812 13 L 4.2988281 13 L 3.3007812 13 z "
	class="ColorScheme-Text"
    />
  <path
     inkscape:connector-curvature="0"
     id="path8"
     style="fill:#da4453"
     d="M 6,3 A 2,2 0 0 0 4,5 2,2 0 0 0 4.67969,6.5 2,2 0 0 0 4,8 2,2 0 0 0 6,10 2,2 0 0 0 8,8 2,2 0 0 0 7.32031,6.5 2,2 0 0 0 8,5 2,2 0 0 0 6,3 M 6,4 A 1,1 0 0 1 7,5 1,1 0 0 1 6,6 1,1 0 0 1 5,5 1,1 0 0 1 6,4 M 6,7 A 1,1 0 0 1 7,8 1,1 0 0 1 6,9 1,1 0 0 1 5,8 1,1 0 0 1 6,7" />
  <path
     inkscape:connector-curvature="0"
     id="path10"
     style="fill:#1d99f3"
     d="m 17,12 a 2,1.999998 0 0 0 -2,2 l 0,3 a 2,1.999998 0 0 0 2,2 2,1.999998 0 0 0 2,-2 2,1.999998 0 0 0 -2,-2 2,1.999998 0 0 0 -1,0.269531 L 16,14 a 1,1 0 0 1 1,-1 1,1 0 0 1 1,1 l 1,0 a 2,1.999998 0 0 0 -2,-2 m 0,4 a 1,1 0 0 1 1,1 1,1 0 0 1 -1,1 1,1 0 0 1 -1,-1 1,1 0 0 1 1,-1" />
</svg>

<svg viewBox="0 0 22 22" xmlns="http://www.w3.org/2000/svg"><path d="m11 3v1a7 7 0 0 1 6.308594 4h-3.609375v1h4 1v-.1132812-.8867188-4h-1v2.65625a7.999998 8 0 0 0 -6.699219-3.65625zm-7.6992188 10v.113281.886719 4h1v-2.65625a7.999998 8 0 0 0 6.6992188 3.65625v-1a7 7 0 0 1 -6.3085938-4h3.609375v-1h-4.0019531z" fill="#4d4d4d"/><path d="m6 3a2 2 0 0 0 -2 2 2 2 0 0 0 .67969 1.5 2 2 0 0 0 -.67969 1.5 2 2 0 0 0 2 2 2 2 0 0 0 2-2 2 2 0 0 0 -.67969-1.5 2 2 0 0 0 .67969-1.5 2 2 0 0 0 -2-2m0 1a1 1 0 0 1 1 1 1 1 0 0 1 -1 1 1 1 0 0 1 -1-1 1 1 0 0 1 1-1m0 3a1 1 0 0 1 1 1 1 1 0 0 1 -1 1 1 1 0 0 1 -1-1 1 1 0 0 1 1-1" fill="#da4453"/><path d="m17 12a2 1.999998 0 0 0 -2 2v3a2 1.999998 0 0 0 2 2 2 1.999998 0 0 0 2-2 2 1.999998 0 0 0 -2-2 2 1.999998 0 0 0 -1 .269531v-1.269531a1 1 0 0 1 1-1 1 1 0 0 1 1 1h1a2 1.999998 0 0 0 -2-2m0 4a1 1 0 0 1 1 1 1 1 0 0 1 -1 1 1 1 0 0 1 -1-1 1 1 0 0 1 1-1" fill="#1d99f3"/></svg>
